!!!COM: Bach, Johann Sebastian
!!!CDT: 1685/3//-1750/7/28/
!!!OTL@@DE: Nun ruhen alle Waelder
!!!OTL@EN:  Now rests all the forest
!!!AGN: 4-Part Chorale
!!!SCT: Erk 117
!!!SCT: BWV 244
!!!YEC: Copyright 1994, David Huron
!!!YEC: Changes/Additions 2001 by Craig Stuart Sapp
!!!YEN: United States of America
!!!SMA: 371 Bach Chorales, edited by Ludwig Erk, C.F. Peters
!!!PDT: 1850, 1865
!!!ONB: Harmony and Root analysis done manually
**kern	**kern	**kern	**kern	**root	**harm	**kern
!bass	!tenor	!alto	!soprno	!	!	!
*Iorgan	*Iorgan	*Iorgan	*Iorgan	*Iorgan	*	*Iorgan
*M4/4	*M4/4	*M4/4	*M4/4	*M4/4	*M4/4	*M4/4
*met(C)	*met(C)	*met(C)	*met(C)	*met(C)	*met(C)	*met(C)
*MM60	*MM60	*MM60	*MM60	*MM60	*MM60	*MM60
*k[b-e-a-d-]	*k[b-e-a-d-]	*k[b-e-a-d-]	*k[b-e-a-d-]	*k[b-e-a-d-]	*k[b-e-a-d-]	*k[b-e-a-d-]
*A-:	*A-:	*A-:	*A-:	*A-:	*A-:	*A-:
4A-	4e-	4a-	4cc	4AA-	I	4A- 4cc 4ee-
=1	=1	=1	=1	=1	=1	=1
8d-	4d-	4f	4a-	4DD-	IV	4D- 4f 4a-
8c	.	.	.	.	.	.
4B-	4d-	4g	4b-	4GG	viiob	4g 4B- 4dd-
4.A-	8e-	8a-	8cc	4AA-	I	4A- 4cc 4ee-
.	8d-	8b-	8dd-	.	.	.
.	8c	4cc	4ee-	4AA-	I	4A- 4cc 4ee-
8G	8B-	.	.	.	.	.
=2	=2	=2	=2	=2	=2	=2
4F	4A-	4cc	2dd-	4DD-	IV7b	4d- 4F 4a- 4cc
4G	4e-	4b-	.	4EE-	V7b	4e- 4G 4b- 4dd-
4A-;	4e-;	4a-;	4cc;	4AA-;	I;	4A-; 4cc; 4ee-;
4F	4f	4a-	8cc	4FF	vi	4F 4a- 4cc
.	.	.	8dd-	.	.	.
=3	=3	=3	=3	=3	=3	=3
8C	4e-	8a-	4ee-	4AA-	Ib	4a- 4C 4ee-
8BB-	.	8g	.	.	.	.
8C	4e-	8a-	4ee-	4AA-	Ib	4a- 4C 4ee-
8D-	.	8f	.	.	.	.
8E-	4e-	8g	4b-	4EE-	V	4E- 4g 4b-
8D-	.	8f	.	.	.	.
4C	4G	4e-	4cc	4CC	iii	4C 4e- 4g
=4	=4	=4	=4	=4	=4	=4
2F	8A-	4e-	2a-	2DD	viib/V	2d 2F 2a
.	8G	.	.	.	.	.
.	4A-	4dn	.	.	.	.
4E-;	4B-;	4e-;	4g;	4EE-;	V;	4E-; 4g; 4b-;
4D-y	8G	4B-	4e-	4EE-	V7d	4e- 4g 4b- 4D-
.	8F	.	.	.	.	.
=5	=5	=5	=5	=5	=5	=5
4C	4E-	4e-	4a-	4AA-	Ib	4a- 4C 4ee-
4BB-	8F	4d-	4b-	4BB-	ii	4B- 4dd- 4ff
.	8G	.	.	.	.	.
8AA-	4A-	8c	4cc	4AA-	I	4A- 4cc 4ee-
8BB-	.	8d-	.	.	.	.
8C	4A-	4e-	4cc	4AA-	Ib	4a- 4C 4ee-
8D-	.	.	.	.	.	.
=6	=6	=6	=6	=6	=6	=6
2.E-;	2.G;	2.e-;	2.b-;	2.EE-;	V;	2.E-; 2.g; 2.b-;
4En	4c	4g	4cc	4CC	Vb/vi	4c 4E 4g
=7	=7	=7	=7	=7	=7	=7
4F	8c	4f	4a-	4FF	vi	4F 4a- 4cc
.	8d-	.	.	.	.	.
4G	8c	4e-	4b-	4EE-	Vb	4e- 4G 4b-
.	8B-	.	.	.	.	.
4A-	8A-	4e-	8cc	4AA-	I	4A- 4cc 4ee-
.	8B-	.	8dd-	.	.	.
4An	4c	4f	4ee-	4FF	V7b/II	4f 4A 4cc 4ee-
=8	=8	=8	=8	=8	=8	=8
4B-	8B-	8f	2dd-	2BB-	ii	2B- 2dd- 2ff
.	8c	8e-	.	.	.	.
4BB-	8d-	8f	.	.	.	.
.	8e-	8g	.	.	.	.
4F;	4f;	4an;	4cc;	4FF;	VI;	4F; 4a; 4cc;
4F	4f	4a-	8cc	4FF	vi	4F 4a- 4cc
.	.	.	8dd-	.	.	.
=9	=9	=9	=9	=9	=9	=9
4G	8e-	4b-	4ee-	4EE-	Vb	4e- 4G 4b-
.	8d-	.	.	.	.	.
4A-	4c	8a-	4ee-	4AA-	I	4A- 4cc 4ee-
.	.	8g	.	.	.	.
8A-	4dn	4f	4b-	4BB-	V7d/V	4b- 4dd 4ff 4A-
8G	.	.	.	.	.	.
8F	4G	4g	4cc	4CC	III	4C 4e 4g
8En	.	.	.	.	.	.
=10	=10	=10	=10	=10	=10	=10
8F	2c	4g	2a-	4FF	vi	4F 4a- 4cc
8G	.	.	.	.	.	.
8A-	.	4f	.	4FF	vib	4f 4A- 4cc
8B-	.	.	.	.	.	.
4c;	4c;	4en;	4g;	4CC;	III;	4C; 4e; 4g;
4C	4c	4e-	4e-	4CC	iii	4C 4e- 4g
=11	=11	=11	=11	=11	=11	=11
4F	8c	8e-	4a-	8FF	vi7	8F 8a- 8cc 8ee-
.	8d-	8f	.	8DD-	IVc	8d- 8f 8A-
4G	8c	8e-	4b-	8CC	iii7c	8c 8e- 8G 8b-
.	8B-	8d-	.	8GG	viio	8G 8b- 8dd-
8A-	4A-	8c	4cc	4AA-	I	4A- 4cc 4ee-
8G	.	8e-	.	.	.	.
8F	4A-	8f	4dd-	4DD-	IVb	4d- 4F 4a-
8E-	.	8g	.	.	.	.
=12	=12	=12	=12	=12	=12	=12
4D-	4f	4a-	4cc	4DD-	IV7	4D- 4f 4a- 4cc
4E-	8B-	4g	4b-	4EE-	V	4E- 4g 4b-
.	16c	.	.	.	.	.
.	16d-	.	.	.	.	.
4AA-;	4c;	4e-;	4a-;	4AA-;	I;	4A-; 4cc; 4ee-;
==	==	==	==	==	==	==
*-	*-	*-	*-	*-	*-	*-
!!!ONB: Data missing around measure 8; removed that phrase for now
